packages/elvis-assets-icons/icons/svg/src/electric_car-color.svg

<svg width="24" height="24" viewBox="0 0 24 24" fill="none" xmlns="http://www.w3.org/2000/svg">
<path fill-rule="evenodd" clip-rule="evenodd" d="M3.75 15.75C3.75 15.3358 4.08579 15 4.5 15H6C6.41421 15 6.75 15.3358 6.75 15.75C6.75 16.1642 6.41421 16.5 6 16.5H4.5C4.08579 16.5 3.75 16.1642 3.75 15.75Z" fill="black"/>
<path fill-rule="evenodd" clip-rule="evenodd" d="M17.25 15.75C17.25 15.3358 17.5858 15 18 15H19.5C19.9142 15 20.25 15.3358 20.25 15.75C20.25 16.1642 19.9142 16.5 19.5 16.5H18C17.5858 16.5 17.25 16.1642 17.25 15.75Z" fill="black"/>
<path fill-rule="evenodd" clip-rule="evenodd" d="M5.8925 7.64164C6.0202 7.54957 6.17364 7.50001 6.33107 7.5C6.74528 7.49996 7.08104 7.16414 7.081 6.74993C7.08096 6.33572 6.74514 5.99996 6.33093 6C5.85864 6.00004 5.39833 6.14871 5.01524 6.42492C4.63214 6.70114 4.34567 7.09091 4.19643 7.539C4.1891 7.56101 4.18279 7.58335 4.17753 7.60594L3.06813 12.3712L1.4085 14.0308C0.986973 14.4526 0.750127 15.0247 0.75 15.621V18.75C0.75 19.3467 0.987053 19.919 1.40901 20.341C1.64856 20.5805 1.93657 20.7605 2.25 20.8713V21.75C2.25 22.3467 2.48705 22.919 2.90901 23.341C3.33097 23.7629 3.90326 24 4.5 24C5.09674 24 5.66903 23.7629 6.09099 23.341C6.51295 22.919 6.75 22.3467 6.75 21.75V21H17.25V21.75C17.25 22.3467 17.4871 22.919 17.909 23.341C18.331 23.7629 18.9033 24 19.5 24C20.0967 24 20.669 23.7629 21.091 23.341C21.5129 22.919 21.75 22.3467 21.75 21.75V20.8713C22.0634 20.7605 22.3514 20.5805 22.591 20.341C23.0129 19.919 23.25 19.3467 23.25 18.75V15.6208C23.2499 15.0245 23.0129 14.4525 22.5913 14.0307L20.9319 12.3712L19.8225 7.60594C19.8172 7.58335 19.8109 7.56101 19.8036 7.539C19.6543 7.09091 19.3679 6.70114 18.9848 6.42492C18.6017 6.14871 18.1414 6.00004 17.6691 6C17.2549 5.99996 16.919 6.33572 16.919 6.74993C16.919 7.16414 17.2547 7.49996 17.6689 7.5C17.8264 7.50001 17.9798 7.54957 18.1075 7.64164C18.2274 7.72808 18.3189 7.84788 18.3708 7.98581L19.3053 12H4.69466L5.62921 7.9858C5.68112 7.84788 5.77262 7.72808 5.8925 7.64164ZM20.25 21H18.75V21.75C18.75 21.9489 18.829 22.1397 18.9697 22.2803C19.1103 22.421 19.3011 22.5 19.5 22.5C19.6989 22.5 19.8897 22.421 20.0303 22.2803C20.171 22.1397 20.25 21.9489 20.25 21.75V21ZM18 19.5H21C21.1989 19.5 21.3897 19.421 21.5303 19.2803C21.671 19.1397 21.75 18.9489 21.75 18.75V15.6212C21.7499 15.4225 21.671 15.2319 21.5307 15.0913L19.9393 13.5H4.06066L2.4695 15.0912C2.32914 15.2317 2.25008 15.4224 2.25 15.621V18.75C2.25 18.9489 2.32902 19.1397 2.46967 19.2803C2.61032 19.421 2.80109 19.5 3 19.5H6H18ZM3.75 21.75V21H5.25V21.75C5.25 21.9489 5.17098 22.1397 5.03033 22.2803C4.88968 22.421 4.69891 22.5 4.5 22.5C4.30109 22.5 4.11032 22.421 3.96967 22.2803C3.82902 22.1397 3.75 21.9489 3.75 21.75Z" fill="black"/>
<path fill-rule="evenodd" clip-rule="evenodd" d="M11.25 0.75C11.25 0.335786 10.9142 0 10.5 0C10.0858 0 9.75 0.335786 9.75 0.75V3H9C8.58579 3 8.25 3.33579 8.25 3.75C8.25 4.74456 8.64509 5.69839 9.34835 6.40165C9.87214 6.92544 10.5349 7.27827 11.25 7.42425V9.75C11.25 10.1642 11.5858 10.5 12 10.5C12.4142 10.5 12.75 10.1642 12.75 9.75V7.42425C13.4651 7.27827 14.1279 6.92544 14.6517 6.40165C15.3549 5.69839 15.75 4.74456 15.75 3.75C15.75 3.33579 15.4142 3 15 3H14.25V0.75C14.25 0.335786 13.9142 0 13.5 0C13.0858 0 12.75 0.335786 12.75 0.75V3H11.25V0.75ZM12 6C12.5967 6 13.169 5.76295 13.591 5.34099C13.8305 5.10144 14.0105 4.81343 14.1213 4.5H13.5H10.5H9.87868C9.9895 4.81343 10.1695 5.10144 10.409 5.34099C10.831 5.76295 11.4033 6 12 6Z" fill="#29D305"/>
</svg>

<svg width="24" height="24" fill="none" xmlns="http://www.w3.org/2000/svg"><path fill-rule="evenodd" clip-rule="evenodd" d="M3.75 15.75A.75.75 0 014.5 15H6a.75.75 0 010 1.5H4.5a.75.75 0 01-.75-.75zM17.25 15.75A.75.75 0 0118 15h1.5a.75.75 0 010 1.5H18a.75.75 0 01-.75-.75z" fill="#000"/><path fill-rule="evenodd" clip-rule="evenodd" d="M5.893 7.642A.75.75 0 016.33 7.5a.75.75 0 000-1.5 2.25 2.25 0 00-2.153 1.606l-1.11 4.765-1.66 1.66a2.25 2.25 0 00-.658 1.59v3.129a2.25 2.25 0 001.5 2.121v.879a2.25 2.25 0 004.5 0V21h10.5v.75a2.25 2.25 0 004.5 0v-.879a2.25 2.25 0 001.5-2.121v-3.13a2.25 2.25 0 00-.659-1.59l-1.66-1.659-1.108-4.765A2.25 2.25 0 0017.67 6a.75.75 0 00-.001 1.5.75.75 0 01.702.486L19.305 12H4.695l.934-4.014a.75.75 0 01.264-.344zM20.25 21h-1.5v.75a.75.75 0 101.5 0V21zM18 19.5h3a.75.75 0 00.75-.75v-3.129a.75.75 0 00-.22-.53L19.94 13.5H4.06l-1.59 1.591a.75.75 0 00-.22.53v3.129a.75.75 0 00.75.75h15zM3.75 21.75V21h1.5v.75a.75.75 0 11-1.5 0z" fill="#000"/><path fill-rule="evenodd" clip-rule="evenodd" d="M11.25.75a.75.75 0 00-1.5 0V3H9a.75.75 0 00-.75.75 3.75 3.75 0 003 3.674V9.75a.75.75 0 001.5 0V7.424a3.75 3.75 0 003-3.674A.75.75 0 0015 3h-.75V.75a.75.75 0 00-1.5 0V3h-1.5V.75zM12 6a2.25 2.25 0 002.121-1.5H9.88A2.25 2.25 0 0012 6z" fill="#29D305"/></svg>
